TV/Source/Viva.svg

<svg height="4.998978mm" viewBox="0 0 39.143061 17.712915" width="11.047042mm" xmlns="http://www.w3.org/2000/svg" xmlns:xlink="http://www.w3.org/1999/xlink"><clipPath id="a"><path d="m96.722 336.682h45.105v27.534h-45.105z"/></clipPath><clipPath id="b"><path d="m99.662 343.614h39.721v15.276h-39.721z"/></clipPath><g clip-path="url(#b)" transform="matrix(1.25 0 0 -1.25 -124.5782 447.23041)"><g transform="translate(112.0422 355.2974)"><path d="m0 0-2.468-4.024c-.073-.119-.118-.331-.1-.47l.757-5.747c.018-.139.147-.238.286-.22l2.759.364c.139.018.238.147.22.286l-1.287 9.776c-.019.139-.094.155-.167.035" fill="#d83267"/></g><g transform="translate(110.7359 355.3248)"><path d="m0 0-3.431-.452c-.139-.018-.313-.131-.386-.25l-3.414-5.567c-.073-.119-.148-.103-.166.035l-.647 4.918c-.019.139-.147.238-.286.219l-2.522-.331c-.139-.019-.238-.148-.219-.287l1.287-9.775c.018-.139.147-.238.286-.219l2.521.331c.139.019.313.131.386.251l6.71 10.943c.074.119.02.203-.119.184" fill="#d83267"/></g></g><g clip-path="url(#a)" transform="matrix(1.25 0 0 -1.25 -124.5782 447.23041)"><g transform="translate(124.2757 357.1078)"><path d="m0 0-3.383-.445c-.139-.019-.312-.132-.386-.251l-3.432-5.595c-.073-.12-.149-.103-.167.035l-.65 4.943c-.019.139-.148.239-.287.219l-2.521-.331c-.139-.019-.238-.148-.219-.287l1.287-9.775c.018-.14.147-.237.286-.219l2.495.328c.139.018.313.131.386.25l6.71 10.944c.074.119.02.202-.119.184" fill="#d83267"/></g><g transform="translate(125.4909 351.0782)"><path d="m0 0 1.489 2.429c.073.119.148.104.167-.036l.281-2.138zm3.91 6.704-3.43-.451c-.139-.019-.313-.132-.386-.251l-6.696-10.941c-.073-.12-.019-.202.12-.184l3.38.445c.14.018.314.13.386.25l.975 1.59 4.016.528.182-1.379c.018-.14.147-.238.286-.22l2.521.332c.139.018.238.147.22.286l-1.288 9.776c-.018.139-.147.237-.286.219" fill="#d83267"/></g></g></svg>

<?xml version="1.0" encoding="UTF-8" standalone="no"?>
<!-- Created with Inkscape (http://www.inkscape.org/) -->

<svg
   xmlns:dc="http://purl.org/dc/elements/1.1/"
   xmlns:cc="http://creativecommons.org/ns#"
   xmlns:rdf="http://www.w3.org/1999/02/22-rdf-syntax-ns#"
   xmlns:svg="http://www.w3.org/2000/svg"
   xmlns="http://www.w3.org/2000/svg"
   xmlns:sodipodi="http://sodipodi.sourceforge.net/DTD/sodipodi-0.dtd"
   xmlns:inkscape="http://www.inkscape.org/namespaces/inkscape"
   width="11.047042mm"
   height="4.9989781mm"
   viewBox="0 0 39.143061 17.712915"
   id="svg9680"
   version="1.1"
   inkscape:version="0.91 r13725"
   sodipodi:docname="Viva.svg">
  <defs
     id="defs9682">
    <clipPath
       clipPathUnits="userSpaceOnUse"
       id="clipPath2318">
      <path
         d="m 99.662,343.614 39.721,0 0,15.276 -39.721,0 0,-15.276 z"
         id="path2320"
         inkscape:connector-curvature="0" />
    </clipPath>
    <clipPath
       clipPathUnits="userSpaceOnUse"
       id="clipPath2302">
      <path
         d="m 96.722,336.682 45.105,0 0,27.534 -45.105,0 0,-27.534 z"
         id="path2304"
         inkscape:connector-curvature="0" />
    </clipPath>
    <clipPath
       clipPathUnits="userSpaceOnUse"
       id="clipPath2286">
      <path
         d="m 99.662,343.614 39.721,0 0,15.276 -39.721,0 0,-15.276 z"
         id="path2288"
         inkscape:connector-curvature="0" />
    </clipPath>
  </defs>
  <sodipodi:namedview
     id="base"
     pagecolor="#ffffff"
     bordercolor="#666666"
     borderopacity="1.0"
     inkscape:pageopacity="0.0"
     inkscape:pageshadow="2"
     inkscape:zoom="11.2"
     inkscape:cx="20.081409"
     inkscape:cy="14.221125"
     inkscape:document-units="px"
     inkscape:current-layer="layer1"
     showgrid="false"
     fit-margin-top="0"
     fit-margin-left="0"
     fit-margin-right="0"
     fit-margin-bottom="0"
     inkscape:window-width="1920"
     inkscape:window-height="1017"
     inkscape:window-x="-8"
     inkscape:window-y="-8"
     inkscape:window-maximized="1" />
  <metadata
     id="metadata9685">
    <rdf:RDF>
      <cc:Work
         rdf:about="">
        <dc:format>image/svg+xml</dc:format>
        <dc:type
           rdf:resource="http://purl.org/dc/dcmitype/StillImage" />
        <dc:title></dc:title>
      </cc:Work>
    </rdf:RDF>
  </metadata>
  <g
     inkscape:label="Layer 1"
     inkscape:groupmode="layer"
     id="layer1"
     transform="translate(-258.03197,-375.6248)">
    <g
       transform="matrix(1.25,0,0,-1.25,133.45377,822.85521)"
       id="g2282">
      <g
         id="g2284"
         clip-path="url(#clipPath2286)">
        <g
           id="g2290"
           transform="translate(112.0422,355.2974)">
          <path
             d="m 0,0 -2.468,-4.024 c -0.073,-0.119 -0.118,-0.331 -0.1,-0.47 l 0.757,-5.747 c 0.018,-0.139 0.147,-0.238 0.286,-0.22 l 2.759,0.364 c 0.139,0.018 0.238,0.147 0.22,0.286 L 0.167,-0.035 C 0.148,0.104 0.073,0.12 0,0"
             style="fill:#d83267;fill-opacity:1;fill-rule:nonzero;stroke:none"
             id="path2292"
             inkscape:connector-curvature="0" />
        </g>
        <g
           id="g2294"
           transform="translate(110.7359,355.3248)">
          <path
             d="M 0,0 -3.431,-0.452 C -3.57,-0.47 -3.744,-0.583 -3.817,-0.702 l -3.414,-5.567 c -0.073,-0.119 -0.148,-0.103 -0.166,0.035 l -0.647,4.918 c -0.019,0.139 -0.147,0.238 -0.286,0.219 l -2.522,-0.331 c -0.139,-0.019 -0.238,-0.148 -0.219,-0.287 l 1.287,-9.775 c 0.018,-0.139 0.147,-0.238 0.286,-0.219 l 2.521,0.331 c 0.139,0.019 0.313,0.131 0.386,0.251 l 6.71,10.943 C 0.193,-0.065 0.139,0.019 0,0"
             style="fill:#d83267;fill-opacity:1;fill-rule:nonzero;stroke:none"
             id="path2296"
             inkscape:connector-curvature="0" />
        </g>
      </g>
    </g>
    <g
       transform="matrix(1.25,0,0,-1.25,133.45377,822.85521)"
       id="g2298">
      <g
         id="g2300"
         clip-path="url(#clipPath2302)">
        <g
           id="g2306"
           transform="translate(124.2757,357.1078)">
          <path
             d="m 0,0 -3.383,-0.445 c -0.139,-0.019 -0.312,-0.132 -0.386,-0.251 l -3.432,-5.595 c -0.073,-0.12 -0.149,-0.103 -0.167,0.035 l -0.65,4.943 c -0.019,0.139 -0.148,0.239 -0.287,0.219 l -2.521,-0.331 c -0.139,-0.019 -0.238,-0.148 -0.219,-0.287 l 1.287,-9.775 c 0.018,-0.14 0.147,-0.237 0.286,-0.219 l 2.495,0.328 c 0.139,0.018 0.313,0.131 0.386,0.25 l 6.71,10.944 C 0.193,-0.065 0.139,0.018 0,0"
             style="fill:#d83267;fill-opacity:1;fill-rule:nonzero;stroke:none"
             id="path2308"
             inkscape:connector-curvature="0" />
        </g>
        <g
           id="g2310"
           transform="translate(125.4909,351.0782)">
          <path
             d="M 0,0 1.489,2.429 C 1.562,2.548 1.637,2.533 1.656,2.393 L 1.937,0.255 0,0 Z M 3.91,6.704 0.48,6.253 C 0.341,6.234 0.167,6.121 0.094,6.002 L -6.602,-4.939 c -0.073,-0.12 -0.019,-0.202 0.12,-0.184 l 3.38,0.445 c 0.14,0.018 0.314,0.13 0.386,0.25 l 0.975,1.59 4.016,0.528 0.182,-1.379 c 0.018,-0.14 0.147,-0.238 0.286,-0.22 l 2.521,0.332 c 0.139,0.018 0.238,0.147 0.22,0.286 L 4.196,6.485 C 4.178,6.624 4.049,6.722 3.91,6.704"
             style="fill:#d83267;fill-opacity:1;fill-rule:nonzero;stroke:none"
             id="path2312"
             inkscape:connector-curvature="0" />
        </g>
      </g>
    </g>
  </g>
</svg>
